dist/svg/static/tour-large.svg

<svg xmlns="http://www.w3.org/2000/svg" width="48" height="48" viewBox="0 0 48 48"><g fill="none" stroke="currentColor" stroke-miterlimit="10"><path d="M31.5 27.5c-.161-3.78 2.712-6.838 6.492-7 .149-.006.299-.003.448 0 3.929.038 7.017 3.071 7.06 7 0 3.88-7 14-7 14s-7-10.12-7-14z"/><path d="M38.5 24.5c1.707 0 3 1.293 3 3s-1.293 3-3 3-3-1.293-3-3 1.293-3 3-3zM7.708 5.502a3.9 3.9 0 0 1 .265 0c2.188.048 3.979 1.812 4.027 4 0 2.2-4 8.248-4 8.248s-4-6.058-4-8.248c-.073-2.135 1.572-3.927 3.708-4zM8 21.5h16L10 32l28 14.063M25.708 5.502a3.9 3.9 0 0 1 .265 0c2.188.048 3.979 1.812 4.027 4 0 2.2-4 8.248-4 8.248s-4-6.058-4-8.248c-.073-2.135 1.573-3.927 3.708-4z"/></g></svg>

<?xml version="1.0" encoding="UTF-8" standalone="no"?>
<svg width="48px" height="48px" viewBox="0 0 48 48" version="1.1" xmlns="http://www.w3.org/2000/svg" xmlns:xlink="http://www.w3.org/1999/xlink">
    <!-- Generator: sketchtool 46.2 (44496) - http://www.bohemiancoding.com/sketch -->
    <title>tour-large</title>
    <desc>Created with sketchtool.</desc>
    <defs></defs>
    <g id="icons-published" stroke="none" stroke-width="1" fill="none" fill-rule="evenodd">
        <g id="briefing" transform="translate(0.000000, -2202.000000)"></g>
        <g id="tour-large" stroke="#000000">
            <path d="M31.5,27.5 C31.3,23.7 34.2,20.7 38,20.5 C38.1,20.5 38.3,20.5 38.4,20.5 C42.3,20.5 45.4,23.6 45.5,27.5 C45.5,31.4 38.5,41.5 38.5,41.5 C38.5,41.5 31.5,31.4 31.5,27.5 Z" id="Shape"></path>
            <path d="M38.5,24.5 C40.2,24.5 41.5,25.8 41.5,27.5 C41.5,29.2 40.2,30.5 38.5,30.5 C36.8,30.5 35.5,29.2 35.5,27.5 C35.5,25.8 36.8,24.5 38.5,24.5 Z M7.7,5.5 C7.8,5.5 7.9,5.5 8,5.5 C10.2,5.5 12,7.3 12,9.5 C12,11.7 8,17.7 8,17.7 C8,17.7 4,11.6 4,9.5 C3.9,7.4 5.6,5.6 7.7,5.5 Z M25.7,5.5 C25.8,5.5 25.9,5.5 26,5.5 C28.2,5.5 30,7.3 30,9.5 C30,11.7 26,17.7 26,17.7 C26,17.7 22,11.6 22,9.5 C21.9,7.4 23.6,5.6 25.7,5.5 Z" id="Shape"></path>
            <polyline id="Path" points="8 21.5 24 21.5 10 32 38 46.1"></polyline>
        </g>
    </g>
</svg>
